spirit-level.svg

<svg fill="currentColor" viewBox="0 0 24 24"><path d="M22 8H2v8h20zm-4 6v-4h2v4zm-7-2h2a2 2 0 0 0 2-2h2v4H7v-4h2a2 2 0 0 0 2 2m-7 2v-4h2v4z"/></svg>

<svg  viewBox="0 0 24 24" fill="currentColor"><path  d="M22 8H2V16H22V8M18 14V10H20V14H18M11 12H13C14.1 12 15 11.11 15 10H17V14H7V10H9C9 11.11 9.9 12 11 12M4 14V10H6V14H4Z"/></svg>
